icon-themes/sifr_svg/cmd/32/entirecell.svg

<svg viewBox="0 0 32 32" xmlns="http://www.w3.org/2000/svg"><g fill="#555753"><path d="m2 4v10h1v13h27v-22h-16v-1zm1 1h10v8h-10zm11 2h6v5h-6zm7 0h7v5h-7zm-7 6h6v6h-7v-5h1zm7 0h7v6h-7zm-16 1h7v5h-7zm0 6h7v5h-7zm8 0h7v5h-7zm8 0h7v5h-7z"/><path d="m3 5v8h10v-8z" opacity=".35"/></g></svg>

<svg xmlns="http://www.w3.org/2000/svg" viewBox="0 0 32 32">
 <path
     style="fill:#555753"
     d="M 2 4 L 2 14 L 3 14 L 3 27 L 30 27 L 30 5 L 14 5 L 14 4 L 2 4 z M 3 5 L 13 5 L 13 13 L 3 13 L 3 5 z M 14 7 L 20 7 L 20 12 L 14 12 L 14 7 z M 21 7 L 28 7 L 28 12 L 21 12 L 21 7 z M 14 13 L 20 13 L 20 19 L 13 19 L 13 14 L 14 14 L 14 13 z M 21 13 L 28 13 L 28 19 L 21 19 L 21 13 z M 5 14 L 12 14 L 12 19 L 5 19 L 5 14 z M 5 20 L 12 20 L 12 25 L 5 25 L 5 20 z M 13 20 L 20 20 L 20 25 L 13 25 L 13 20 z M 21 20 L 28 20 L 28 25 L 21 25 L 21 20 z "
     />
 <path
     style="fill:#555753;opacity:0.35"
     d="M 3 5 L 3 13 L 13 13 L 13 5 L 3 5 z "
     />
 </svg>
